svg/file_table_outline.svg

<svg xmlns="http://www.w3.org/2000/svg" viewBox="0 0 24 24"><path d="M14 2H6a2 2 0 0 0-2 2v16a2 2 0 0 0 2 2h12a2 2 0 0 0 2-2V8zm4 18H6V4h7v5h5zm-8-7H7v-2h3zm4 0h-3v-2h3zm-4 3H7v-2h3zm4 0h-3v-2h3zm-4 3H7v-2h3zm4 0h-3v-2h3z"/></svg>

<?xml version="1.0" encoding="UTF-8"?><!DOCTYPE svg PUBLIC "-//W3C//DTD SVG 1.1//EN" "http://www.w3.org/Graphics/SVG/1.1/DTD/svg11.dtd"><svg xmlns="http://www.w3.org/2000/svg" xmlns:xlink="http://www.w3.org/1999/xlink" version="1.1" id="mdi-file-table-outline" width="24" height="24" viewBox="0 0 24 24"><path d="M14,2H6A2,2 0 0,0 4,4V20A2,2 0 0,0 6,22H18A2,2 0 0,0 20,20V8L14,2M18,20H6V4H13V9H18V20M10,13H7V11H10V13M14,13H11V11H14V13M10,16H7V14H10V16M14,16H11V14H14V16M10,19H7V17H10V19M14,19H11V17H14V19Z" /></svg>
